X:96
%%etbk:tnset id:33,pos:3,rep:3x,ant:
%%etbk:video src:ytube,cde:-j3pF5KCOBo,desc:
%%etbk:color #ffe6e6
%%etbk:pldat 2016-09-07T16:22,2016-07-05T17:30,2016-01-21T19:26,2016-01-03T13:33,2015-12-31T14:17,2015-12-29T16:07,2015-11-29T14:28,2015-11-25T17:14,2015-07-08T16:02,2015-02-06T18:14,2015-01-17T15:13,2014-12-13T16:09,2014-12-06T16:01,2014-12-02T17:26,2014-09-11T18:46,2014-09-09T18:48,2014-05-21T19:13,2014-05-19T18:20,2014-05-17T20:34,2014-05-13T18:46,2014-05-02T17:12,2014-03-25T17:07,2014-02-09T11:37,2014-02-06T18:58,2013-11-17T16:16,2013-11-03T15:18,2013-08-27T18:51,2013-05-05T14:19,2013-04-30T17:41
T: Bunch Of Keys, The
Z: Piano Box Version by Martin Fleischmann
H: Created 2013-02-19 /  Last Modified 2016-09-07
M: 4/4
L: 1/8
R: reel
K: Gmix
|: "G-Drone""G"!1!DE!3!F!1!D !4!G3!1!G | !3!(3BAG !5!d!1!G !5!eG!5!d!1!G | "F"!1!DE!3!F!1!D !3!!1!F3!4!_B | !3!A!1!F!4!cF !4!dF!4!c!1!F |
"G"!1!D!3!G-G!2!^F !1!G2Ac | !3!_B2{c}BA !3!B!4!c!3!d!4!e | "F"!5!f3e !5!f!3!d!2!c!1!A | !2!_B!4!d!1!A!2!^F "G"!1!D!3!GG2:|
|: "G-Drone""G"!2!d!4!g!3!g^f !3!ggga | !5!_bggg _bgg!2!f |"D" !1!ddde !3!f3g | !5!ag!3!^fg !5!a!3!^fff |
"G"!1!d!3!ggg !1!d!3!g!5!b!3!g | "D"!4!ag^fa !3!gf!1!d!4!e | "F"!5!f3e !5!f!3!d!2!c!1!A | !2!_B!4!d!1!A!2!^F "G"!1!D!3!GG2:|
|: "G-Drone""G"!3!B!1!G !3!(3G!2!G!1!G !3!BG!5!dG | !3!BG (3GGG !3!BddB | "F"!2!A!1!F !3!(3F!2!F!1!F AFcF | !2!A!1!F (3FFF !2!ABcA |
"G"!3!B!1!G (3GGG !3!BGdG | !3!B!1!GGA !3!B!4!c!3!d!4!e | "F"!5!f3e !5!f!3!d!2!c!1!A | !2!_B!4!d!1!A!2!^F "G"!1!D!3!GG2:|


